svgs/sharp-light/infinity.svg

<svg xmlns="http://www.w3.org/2000/svg" viewBox="0 0 640 512"><!--! Font Awesome Pro 7.1.0 by @fontawesome - https://fontawesome.com License - https://fontawesome.com/license (Commercial License) Copyright 2025 Fonticons, Inc. --><path fill="currentColor" d="M0 96l199.2 0 4.8 5.4 116 130.5 116-130.5 4.8-5.4 199.2 0 0 320-199.2 0-4.8-5.4-116-130.5-116 130.5-4.8 5.4-199.2 0 0-320zM298.6 256l-113.8-128-152.8 0 0 256 152.8 0 113.8-128zm42.8 0l113.8 128 152.8 0 0-256-152.8 0-113.8 128z"/></svg>

<svg xmlns="http://www.w3.org/2000/svg" viewBox="0 0 640 512"><!--! Font Awesome Pro 6.6.0 by @fontawesome - https://fontawesome.com License - https://fontawesome.com/license (Commercial License) Copyright 2024 Fonticons, Inc. --><path d="M0 96l199.2 0L320 231.9 440.8 96 640 96l0 320-199.2 0L320 280.1 199.2 416 0 416 0 96zM298.6 256L184.8 128 32 128l0 256 152.8 0L298.6 256zm42.8 0L455.2 384 608 384l0-256-152.8 0L341.4 256z"/></svg>
